X: 229
%
T: Highland Whiskey
C:
O:Scotland
B:Keith Norman MacDonald : "The Skye collection of the best reels & strathspeys extant" : 1887
Z:Ralph Palmer
R:Strathspey
M:C
L:1/8
K:A
!mf!E | A/2A/2A A2 A>Bc<e | B/2B/2B TB2 {/c}d>ef<a | A/2A/2A A2 A>Bc<d | ef/2g/2 ac {/c}B2 A :|
!p!e | (c/2B/2A) e>A f>Ae>A | G<BTB>A G<BTB>e | (d/2c/2)B/2A/2 e>A f>Ae>A | (ef/2g/2) a<c {/c}B2 Ae |
!f!(c/2B/2A) e>A f>Ae>A | G<BTB>A G<BTB>c | !crescendo(!A<cB<d c<ed<f | ef/2g/2 ac {/c}B2 !crescendo)!A |]


